X: 31103
T: Paddy Fahey's
R: reel
M: 4/4
K: Cmajor
|:GFEG FEC2|EFGA _B3c|dcBd cBG2|Bcdf ecdB|
GFEG FEC2|EFGA _B3c|dcBd cBGE|FDB,D C4:|
|:cdef gcac|BcGF ECEG|Add^c defg|add2 adfa|
g2ec gcec|BcGF ECEG|FAdc Bcdc|BGFD C4:|

